Icons/vite.svg

<svg width="256" height="256" viewBox="0 0 256 256" fill="none" xmlns="http://www.w3.org/2000/svg">
<rect width="256" height="256" rx="60" fill="#242938"/>
<path d="M227.088 57.6016L133.256 225.389C131.318 228.854 126.341 228.874 124.375 225.427L28.6823 57.6177C26.54 53.861 29.7524 49.3105 34.0096 50.0715L127.942 66.8613C128.541 66.9684 129.155 66.9674 129.754 66.8582L221.722 50.0955C225.965 49.3222 229.192 53.8374 227.088 57.6016Z" fill="url(#paint0_linear_307_179)"/>
<path d="M172.687 28.0492L103.249 41.6554C102.107 41.879 101.262 42.8462 101.194 44.007L96.9221 116.148C96.8216 117.847 98.3821 119.166 100.04 118.783L119.373 114.322C121.182 113.905 122.816 115.498 122.445 117.317L116.701 145.443C116.314 147.336 118.092 148.954 119.94 148.393L131.881 144.765C133.732 144.203 135.511 145.826 135.119 147.721L125.991 191.9C125.42 194.664 129.096 196.171 130.629 193.801L131.653 192.219L188.235 79.2992C189.183 77.4085 187.549 75.2526 185.472 75.6534L165.573 79.494C163.703 79.8545 162.112 78.113 162.639 76.2834L175.628 31.2582C176.156 29.4255 174.559 27.6825 172.687 28.0492Z" fill="url(#paint1_linear_307_179)"/>
<defs>
<linearGradient id="paint0_linear_307_179" x1="26.3459" y1="44.075" x2="143.127" y2="202.673" gradientUnits="userSpaceOnUse">
<stop stop-color="#41D1FF"/>
<stop offset="1" stop-color="#BD34FE"/>
</linearGradient>
<linearGradient id="paint1_linear_307_179" x1="122.551" y1="31.7433" x2="143.676" y2="176.66" gradientUnits="userSpaceOnUse">
<stop stop-color="#FFEA83"/>
<stop offset="0.0833333" stop-color="#FFDD35"/>
<stop offset="1" stop-color="#FFA800"/>
</linearGradient>
</defs>
</svg>

<svg width="256" height="256" viewBox="0 0 256 256" fill="none" xmlns="http://www.w3.org/2000/svg"><path d="m227.088 57.602-93.832 167.787c-1.938 3.465-6.915 3.485-8.881.038L28.682 57.617c-2.142-3.756 1.07-8.306 5.328-7.545l93.932 16.79a5.1 5.1 0 0 0 1.812-.004l91.968-16.763c4.243-.773 7.47 3.742 5.366 7.507" fill="url(#a)"/><path d="m172.687 28.05-69.438 13.605a2.55 2.55 0 0 0-2.055 2.352l-4.272 72.141a2.55 2.55 0 0 0 3.118 2.635l19.333-4.461c1.809-.417 3.443 1.176 3.072 2.995l-5.744 28.126c-.387 1.893 1.391 3.511 3.239 2.95l11.941-3.628c1.851-.562 3.63 1.061 3.238 2.956l-9.128 44.179c-.571 2.764 3.105 4.271 4.638 1.901l1.024-1.582 56.582-112.92c.948-1.89-.686-4.046-2.763-3.646l-19.899 3.841c-1.87.36-3.461-1.381-2.934-3.21l12.989-45.026c.528-1.832-1.069-3.575-2.941-3.209" fill="url(#b)"/><defs><linearGradient id="a" x1="26.346" y1="44.075" x2="143.127" y2="202.673" gradientUnits="userSpaceOnUse"><stop stop-color="#41d1ff"/><stop offset="1" stop-color="#bd34fe"/></linearGradient><linearGradient id="b" x1="122.551" y1="31.743" x2="143.676" y2="176.66" gradientUnits="userSpaceOnUse"><stop stop-color="#ffea83"/><stop offset=".083" stop-color="#ffdd35"/><stop offset="1" stop-color="#ffa800"/></linearGradient></defs></svg>
